src/components/assets/basics6.svg

<svg fill="none" height="545" viewBox="0 0 782 545" width="782" xmlns="http://www.w3.org/2000/svg" xmlns:xlink="http://www.w3.org/1999/xlink"><filter id="a" color-interpolation-filters="sRGB" filterUnits="userSpaceOnUse" height="545" width="782" x="0" y="0"><feFlood flood-opacity="0" result="BackgroundImageFix"/><feColorMatrix in="SourceAlpha" type="matrix" values="0 0 0 0 0 0 0 0 0 0 0 0 0 0 0 0 0 0 127 0"/><feOffset dy="3"/><feGaussianBlur stdDeviation="8.5"/><feColorMatrix type="matrix" values="0 0 0 0 0 0 0 0 0 0 0 0 0 0 0 0 0 0 0.1 0"/><feBlend in2="BackgroundImageFix" mode="normal" result="effect1_dropShadow"/><feBlend in="SourceGraphic" in2="effect1_dropShadow" mode="normal" result="shape"/></filter><linearGradient id="b"><stop offset="0" stop-color="#ffc58f"/><stop offset="1" stop-color="#ff7c7c"/></linearGradient><linearGradient id="c" gradientUnits="userSpaceOnUse" x1="297" x2="328.487" xlink:href="#b" y1="254.125" y2="235.154"/><linearGradient id="d" gradientUnits="userSpaceOnUse" x1="537" x2="568.487" xlink:href="#b" y1="254.125" y2="235.154"/><mask id="e" height="511" maskUnits="userSpaceOnUse" width="748" x="17" y="14"><rect fill="#fff" height="511" rx="6" width="748" x="17" y="14"/></mask><g filter="url(#a)"><rect fill="#fff" height="511" rx="6" width="748" x="17" y="14"/></g><circle cx="391" cy="270" fill="#ffa776" fill-opacity=".4" r="39"/><g fill="#f9fafc"><path d="m398.108 274.748h10.4486v8.40782h-10.4486z" transform="matrix(.70064904 -.71350608 .71350608 .70064904 -76.860356 366.298553)"/><path d="m394.536 271.455h10.4486v2.88173h-10.4486z" transform="matrix(.70064904 -.71350608 .71350608 .70064904 -75.580062 362.764147)"/><path d="m405.623 282.038h10.4486v2.88173h-10.4486z" transform="matrix(.70064904 -.71350608 .71350608 .70064904 -79.812193 373.84282)"/><path d="m397.542 278.868h3.58732v10.7917h-3.58732z" transform="matrix(.71519278 .69892725 -.69892725 .71519278 308.131277 -198.429314)"/></g><path d="m375 285.7c0-8.862 7.184-16.046 16.047-16.046" stroke="#f9fafc" stroke-width="5"/><circle cx="391.047" cy="254.551" fill="#f9fafc" r="7.5513"/><circle cx="270" cy="270" fill="#ffa776" r="39"/><path d="m277.108 274.748h10.4486v8.40782h-10.4486z" fill="#f9fafc" transform="matrix(.70064904 -.71350608 .71350608 .70064904 -113.081822 279.964318)"/><path d="m273.536 271.455h10.4486v2.88173h-10.4486z" fill="#f9fafc" transform="matrix(.70064904 -.71350608 .71350608 .70064904 -111.801528 276.429912)"/><path d="m284.623 282.038h10.4486v2.88173h-10.4486z" fill="#f9fafc" transform="matrix(.70064904 -.71350608 .71350608 .70064904 -116.033659 287.508585)"/><path d="m276.542 278.868h3.58732v10.7917h-3.58732z" fill="#f9fafc" transform="matrix(.71519278 .69892725 -.69892725 .71519278 273.669603 -113.859117)"/><path d="m254 285.7c0-8.862 7.184-16.046 16.047-16.046" stroke="#f9fafc" stroke-width="5"/><circle cx="270.047" cy="254.551" fill="#f9fafc" r="7.5513"/><circle cx="512" cy="270" fill="#ffa776" r="39"/><path d="m518.108 274.748h10.4486v8.40782h-10.4486z" fill="#f9fafc" transform="matrix(.70064904 -.71350608 .71350608 .70064904 -40.938241 451.919282)"/><path d="m514.536 271.455h10.4486v2.88173h-10.4486z" fill="#f9fafc" transform="matrix(.70064904 -.71350608 .71350608 .70064904 -39.657947 448.384876)"/><path d="m525.623 282.038h10.4486v2.88173h-10.4486z" fill="#f9fafc" transform="matrix(.70064904 -.71350608 .71350608 .70064904 -43.890078 459.463549)"/><path d="m517.542 278.868h3.58732v10.7917h-3.58732z" fill="#f9fafc" transform="matrix(.71519278 .69892725 -.69892725 .71519278 342.308144 -282.300583)"/><path d="m495 285.7c0-8.862 7.184-16.046 16.047-16.046" stroke="#f9fafc" stroke-width="5"/><circle cx="511.047" cy="254.551" fill="#f9fafc" r="7.5513"/><g mask="url(#e)"><path d="m320.216 237.651v4.485l-9.181-5.194-10.048 5.693v5.876l10.048 5.666 13.982-7.922v4.512l-13.982 7.922-14.035-7.922v-10.388l14.008-7.949z" fill="url(#c)"/><path d="m301.827 243.553v4.512l9.208 5.168 14.008-7.896v-10.388l-14.008-7.949-14.035 7.949v4.485l14.008-7.948 10.021 5.692v5.903l-9.994 5.666z" fill="url(#c)"/><path clip-rule="evenodd" d="m311.035 253.233-9.208-5.168v-4.512l9.208 5.194 9.994-5.666v-5.903l-10.021-5.692-14.008 7.948v-4.485l14.035-7.949 14.008 7.949v10.388zm0 .944-10.048-5.666v-5.876l10.048-5.693 9.181 5.194v-4.485l-9.208-5.221-14.008 7.949v10.388l14.035 7.922 13.982-7.922v-4.512zm-21.035-23.309 21.038-11.915 21.005 11.919v18.555l-.026.014v5.405l-20.976 11.885-21.041-11.877z" fill="#fff" fill-rule="evenodd"/><path d="m392.002 565.377.368.207.368-.207 394.499-222.45.381-.215v-.438-292.6587-.4367l-.379-.2155-394.499-223.9281-.37-.21-.37.21-395.23813 223.9278-.38028.2154v.4371 126.3747 1.289l1.12023-.636 394.12818-223.7179 281.458 159.9449v165.41l-280.72 159.207-258.936-146.121-1.118-.631v1.284 127.114.439l.383.215zm258.565-312.613 1.119.633v-1.286-126.375-.437l-.38-.215-259.305-147.0685-.371-.21-.37.2101-394.49865 223.9284-.37976.215v.437 292.658.438l.38121.215 395.2382 223.189.369.209.369-.21 393.761-223.189.38-.215v-.437-127.114-1.287l-1.12.634-393.391 222.98-282.196-159.208v-164.669l282.197-159.946zm332.326 204.49-.382.215v.438 151.833l-589.961 334.398-591.8-334.187v-674.8467l591.71-335.2423 590.79 335.3479v521.8421z" opacity=".5" stroke="#ffa776" stroke-opacity=".5" stroke-width="1.5"/></g><path d="m560.216 237.651v4.485l-9.181-5.194-10.048 5.693v5.876l10.048 5.666 13.982-7.922v4.512l-13.982 7.922-14.035-7.922v-10.388l14.008-7.949z" fill="url(#d)"/><path d="m541.827 243.553v4.512l9.208 5.168 14.008-7.896v-10.388l-14.008-7.949-14.035 7.949v4.485l14.008-7.948 10.021 5.692v5.903l-9.994 5.666z" fill="url(#d)"/><path clip-rule="evenodd" d="m551.035 253.233-9.208-5.168v-4.512l9.208 5.194 9.994-5.666v-5.903l-10.021-5.692-14.008 7.948v-4.485l14.035-7.949 14.008 7.949v10.388zm0 .944-10.048-5.666v-5.876l10.048-5.693 9.181 5.194v-4.485l-9.208-5.221-14.008 7.949v10.388l14.035 7.922 13.982-7.922v-4.512zm-21.035-23.309 21.038-11.915 21.005 11.919v18.555l-.026.014v5.405l-20.976 11.885-21.041-11.877z" fill="#fff" fill-rule="evenodd"/></svg>

<svg width="782" height="545" viewBox="0 0 782 545" fill="none" xmlns="http://www.w3.org/2000/svg">
<g filter="url(#filter0_d)">
<rect x="17" y="14" width="748" height="511" rx="6" fill="white"/>
</g>
<circle cx="391" cy="270" r="39" fill="#FFA776" fill-opacity="0.4"/>
<rect x="398.108" y="274.748" width="10.4486" height="8.40782" transform="rotate(-45.5209 398.108 274.748)" fill="#F9FAFC"/>
<rect x="394.536" y="271.455" width="10.4486" height="2.88173" transform="rotate(-45.5209 394.536 271.455)" fill="#F9FAFC"/>
<rect x="405.623" y="282.038" width="10.4486" height="2.88173" transform="rotate(-45.5209 405.623 282.038)" fill="#F9FAFC"/>
<rect x="397.542" y="278.868" width="3.58732" height="10.7917" transform="rotate(44.341 397.542 278.868)" fill="#F9FAFC"/>
<path d="M375 285.7C375 276.838 382.184 269.654 391.047 269.654" stroke="#F9FAFC" stroke-width="5"/>
<circle cx="391.047" cy="254.551" r="7.5513" fill="#F9FAFC"/>
<circle cx="270" cy="270" r="39" fill="#FFA776"/>
<rect x="277.108" y="274.748" width="10.4486" height="8.40782" transform="rotate(-45.5209 277.108 274.748)" fill="#F9FAFC"/>
<rect x="273.536" y="271.455" width="10.4486" height="2.88173" transform="rotate(-45.5209 273.536 271.455)" fill="#F9FAFC"/>
<rect x="284.623" y="282.038" width="10.4486" height="2.88173" transform="rotate(-45.5209 284.623 282.038)" fill="#F9FAFC"/>
<rect x="276.542" y="278.868" width="3.58732" height="10.7917" transform="rotate(44.341 276.542 278.868)" fill="#F9FAFC"/>
<path d="M254 285.7C254 276.838 261.184 269.654 270.047 269.654" stroke="#F9FAFC" stroke-width="5"/>
<circle cx="270.047" cy="254.551" r="7.5513" fill="#F9FAFC"/>
<circle cx="512" cy="270" r="39" fill="#FFA776"/>
<rect x="518.108" y="274.748" width="10.4486" height="8.40782" transform="rotate(-45.5209 518.108 274.748)" fill="#F9FAFC"/>
<rect x="514.536" y="271.455" width="10.4486" height="2.88173" transform="rotate(-45.5209 514.536 271.455)" fill="#F9FAFC"/>
<rect x="525.623" y="282.038" width="10.4486" height="2.88173" transform="rotate(-45.5209 525.623 282.038)" fill="#F9FAFC"/>
<rect x="517.542" y="278.868" width="3.58732" height="10.7917" transform="rotate(44.341 517.542 278.868)" fill="#F9FAFC"/>
<path d="M495 285.7C495 276.838 502.184 269.654 511.047 269.654" stroke="#F9FAFC" stroke-width="5"/>
<circle cx="511.047" cy="254.551" r="7.5513" fill="#F9FAFC"/>
<mask id="mask0" mask-type="alpha" maskUnits="userSpaceOnUse" x="17" y="14" width="748" height="511">
<rect x="17" y="14" width="748" height="511" rx="6" fill="white"/>
</mask>
<g mask="url(#mask0)">
<path d="M320.216 237.651V242.136L311.035 236.942L300.987 242.635V248.511L311.035 254.177L325.017 246.255V250.767L311.035 258.689L297 250.767V240.379L311.008 232.43L320.216 237.651Z" fill="url(#paint0_linear)"/>
<path d="M301.827 243.553V248.065L311.035 253.233L325.043 245.337V234.949L311.035 227L297 234.949V239.434L311.008 231.486L321.029 237.178V243.081L311.035 248.747L301.827 243.553Z" fill="url(#paint1_linear)"/>
<path fill-rule="evenodd" clip-rule="evenodd" d="M311.035 253.233L301.827 248.065V243.553L311.035 248.747L321.029 243.081V237.178L311.008 231.486L297 239.434V234.949L311.035 227L325.043 234.949V245.337L311.035 253.233ZM311.035 254.177L300.987 248.511V242.635L311.035 236.942L320.216 242.136V237.651L311.008 232.43L297 240.379V250.767L311.035 258.689L325.017 250.767V246.255L311.035 254.177ZM290 230.868L311.038 218.953L332.043 230.872V249.427L332.017 249.441V254.846L311.041 266.731L290 254.854V230.868Z" fill="white"/>
<path opacity="0.5" d="M392.002 565.377L392.37 565.584L392.738 565.377L787.237 342.927L787.618 342.712V342.274V49.6153V49.1786L787.239 48.9631L392.74 -174.965L392.37 -175.175L392 -174.965L-3.23813 48.9628L-3.61841 49.1782V49.6153V175.99V177.279L-2.49818 176.643L391.63 -47.0749L673.088 112.87V278.28L392.368 437.487L133.432 291.366L132.314 290.735V292.019V419.133V419.572L132.697 419.787L392.002 565.377ZM650.567 252.764L651.686 253.397V252.111V125.736V125.299L651.306 125.084L392.001 -21.9845L391.63 -22.1945L391.26 -21.9844L-3.23865 201.944L-3.61841 202.159V202.596V495.254V495.692L-3.2372 495.907L392.001 719.096L392.37 719.305L392.739 719.095L786.5 495.906L786.88 495.691V495.254V368.14V366.853L785.76 367.487L392.369 590.467L110.173 431.259V266.59L392.37 106.644L650.567 252.764ZM982.893 457.254L982.511 457.469V457.907V609.74L392.55 944.138L-199.25 609.951V-64.8957L392.46 -400.138L983.25 -64.7901V457.052L982.893 457.254Z" stroke="#FFA776" stroke-opacity="0.5" stroke-width="1.5"/>
</g>
<path d="M560.216 237.651V242.136L551.035 236.942L540.987 242.635V248.511L551.035 254.177L565.017 246.255V250.767L551.035 258.689L537 250.767V240.379L551.008 232.43L560.216 237.651Z" fill="url(#paint2_linear)"/>
<path d="M541.827 243.553V248.065L551.035 253.233L565.043 245.337V234.949L551.035 227L537 234.949V239.434L551.008 231.486L561.029 237.178V243.081L551.035 248.747L541.827 243.553Z" fill="url(#paint3_linear)"/>
<path fill-rule="evenodd" clip-rule="evenodd" d="M551.035 253.233L541.827 248.065V243.553L551.035 248.747L561.029 243.081V237.178L551.008 231.486L537 239.434V234.949L551.035 227L565.043 234.949V245.337L551.035 253.233ZM551.035 254.177L540.987 248.511V242.635L551.035 236.942L560.216 242.136V237.651L551.008 232.43L537 240.379V250.767L551.035 258.689L565.017 250.767V246.255L551.035 254.177ZM530 230.868L551.038 218.953L572.043 230.872V249.427L572.017 249.441V254.846L551.041 266.731L530 254.854V230.868Z" fill="white"/>
<defs>
<filter id="filter0_d" x="0" y="0" width="782" height="545" filterUnits="userSpaceOnUse" color-interpolation-filters="sRGB">
<feFlood flood-opacity="0" result="BackgroundImageFix"/>
<feColorMatrix in="SourceAlpha" type="matrix" values="0 0 0 0 0 0 0 0 0 0 0 0 0 0 0 0 0 0 127 0"/>
<feOffset dy="3"/>
<feGaussianBlur stdDeviation="8.5"/>
<feColorMatrix type="matrix" values="0 0 0 0 0 0 0 0 0 0 0 0 0 0 0 0 0 0 0.1 0"/>
<feBlend mode="normal" in2="BackgroundImageFix" result="effect1_dropShadow"/>
<feBlend mode="normal" in="SourceGraphic" in2="effect1_dropShadow" result="shape"/>
</filter>
<linearGradient id="paint0_linear" x1="297" y1="254.125" x2="328.487" y2="235.154" gradientUnits="userSpaceOnUse">
<stop stop-color="#FFC58F"/>
<stop offset="1" stop-color="#FF7C7C"/>
</linearGradient>
<linearGradient id="paint1_linear" x1="297" y1="254.125" x2="328.487" y2="235.154" gradientUnits="userSpaceOnUse">
<stop stop-color="#FFC58F"/>
<stop offset="1" stop-color="#FF7C7C"/>
</linearGradient>
<linearGradient id="paint2_linear" x1="537" y1="254.125" x2="568.487" y2="235.154" gradientUnits="userSpaceOnUse">
<stop stop-color="#FFC58F"/>
<stop offset="1" stop-color="#FF7C7C"/>
</linearGradient>
<linearGradient id="paint3_linear" x1="537" y1="254.125" x2="568.487" y2="235.154" gradientUnits="userSpaceOnUse">
<stop stop-color="#FFC58F"/>
<stop offset="1" stop-color="#FF7C7C"/>
</linearGradient>
</defs>
</svg>
